Sources/FrostedUI/Resources/Icons.xcassets/tiktokFilledSize32.imageset/tiktok-filled-size-32.svg

<svg
  width="32"
  height="32"
  viewBox="0 0 32 32"
  fill="none"
  xmlns="http://www.w3.org/2000/svg"
  data-fui-icon="true"
>
  <path
    d="M27.6204 13.6179C25.2476 13.6179 23.0507 12.8639 21.2567 11.5826V20.8968C21.2567 25.5561 17.4776 29.3333 12.816 29.3333C11.0767 29.3333 9.46005 28.8077 8.11712 27.9064C5.86065 26.3921 4.375 23.8173 4.375 20.8968C4.375 16.2377 8.15415 12.4606 12.8161 12.4607C13.2036 12.4605 13.5905 12.4868 13.9743 12.5392V13.5733L13.9741 17.2053C13.6047 17.0881 13.2109 17.0245 12.8023 17.0245C10.6697 17.0245 8.94125 18.7524 8.94125 20.8836C8.94125 22.3904 9.80525 23.6952 11.0652 24.3308C11.5876 24.5941 12.1775 24.7425 12.8023 24.7425C14.9305 24.7425 16.656 23.0217 16.6633 20.8968V2.66666H21.2567V3.25371C21.2728 3.42922 21.2961 3.60406 21.3267 3.77775C21.6453 5.59515 22.7327 7.14791 24.2417 8.08912C25.2551 8.72136 26.4261 9.0556 27.6205 9.05379L27.6204 13.6179Z"
    fill="currentColor"
  />
</svg>

<svg xmlns="http://www.w3.org/2000/svg" width="32" height="32" fill="none" data-fui-icon="true" viewBox="0 0 32 32"><path fill="currentColor" d="M27.62 13.618c-2.372 0-4.57-.754-6.363-2.035v9.314c0 4.66-3.78 8.436-8.441 8.436a8.4 8.4 0 0 1-4.699-1.427 8.43 8.43 0 0 1-3.742-7.01c0-4.658 3.78-8.435 8.441-8.435q.582 0 1.158.078v4.666a3.86 3.86 0 1 0 2.69 3.691V2.667h4.593v.588a6.38 6.38 0 0 0 2.985 4.835 6.37 6.37 0 0 0 3.378.965z"/></svg>
